!!!COM: Scarlatti, Domenico
!!!CDT: 1685///-1757///
!!!OTL: Sonata in C Major, K.165, L.52
!!!SCT: K. 165
!!!SCT: L. 052
!!!OMD: Andante
**kern	**kern	**dynam
*staff2	*staff1	*staff1
*Icemba	*Icemba	*Icemba
*>[A,A1,A,A2,B,B2,B,B2]	*>[A,A1,A,A2,B,B2,B,B2]	*>[A,A1,A,A2,B,B2,B,B2]
*>norep[A,A2,B,B2]	*>norep[A,A2,B,B2]	*>norep[A,A2,B,B2]
*>A	*>A	*>A
*clefF4	*clefG2	*clefG2
*k[]	*k[]	*k[]
*C:	*C:	*C:
*M3/4	*M3/4	*M3/4
*MM108	*MM108	*MM108
=1-	=1-	=1-
4C/	(12cc\L	p
.	12ee\	.
.	12gg\J)	.
(4e\	2gg\	.
4c\)	.	.
=2	=2	=2
(4f\	(12ff\L	.
.	12ee\	.
.	12dd\J	.
4g\)	4cc\)	.
(4f\	(4b\	.
=3	=3	=3
4e\)	12cc\L	.
.	12ee\	.
.	12gg\J)	.
(4e\	2gg\	.
4c\)	.	.
=4	=4	=4
(4f\	(12a\L	.
.	12ff\	.
.	12dd\J	.
4g\)	4cc\)	.
(4f\	(4b\	.
=5	=5	=5
4e\	12cc\L	.
.	12ee\	.
.	12ff\J	.
4a'\	4ee'\	.
4g'\)	4ee'\)	.
=6	=6	=6
(4f'\	(12ee\L	.
.	12dd\	.
.	12ff\J	.
4g'\	4cc'\ 4ee'\	.
4G'\)	4b'\ 4dd'\)	.
=7	=7	=7
4r	(12cc\L	.
.	12ee\	.
.	12ff\J	.
(4a'\	4ee'\	.
4g'\)	4ee'\)	.
=8	=8	=8
(4f'\	(12ee\L	.
.	12dd\	.
.	12ff\J	.
4g'\	4cc'\ 4ee'\	.
4G'\)	4b'\ 4dd'\	.
=9	=9	=9
(8c\L	4cc\)	.
8G\	.	.
8E\	4r	.
8C\J	.	.
8GG/L	4r	.
8EE/J	.	.
=10	=10	=10
4CC/)	4r	.
4r	(4ee'\	<
(4c'\	4ee'\	[
=11	=11	=11
4B-'\	12ee\L	>
.	12ff\	)
.	12cc#\J	)
4B-'\	4dd'\	)
4B-'\)	4dd'\)	)
=12	=12	=12
(4A'\	(12dd\L	)
.	12cc#\	)
.	12dd\J	]
4A'\	12ee\L	<
.	12ff\	[
.	12gg\J	>
4A'\	12gg\L	)
.	12ff\	)
.	12ee\J	)
=13	=13	=13
4D\)	12ff\L	)
.	12ee\	)
.	12dd\J	]
8r	4dd\)	mf
(8A\L	.	.
8F\	4r	.
8D\J	.	.
=14	=14	=14
4DD/)	4r	.
4r	(4dd'\	p
(4f'\	4dd'\	.
=15	=15	=15
4e'\	12dd\L	>
.	12ee\	)
.	12b\J	)
4e'\	4cc'\	)
4e'\)	4cc'\)	)
=16	=16	=16
(4d'\	(12cc\L	)
.	12b\	)
.	12cc\J	]
4d'\	12dd\L	<
.	12ee\	[
.	12ff\J	>
4G'\	12ff\L	)
.	12ee\	)
.	12dd\J	)
=17	=17	=17
4C/)	12ee\L	)
.	12dd\	)
.	12cc\J	]
8r	4cc\)	mf
(8G\L	.	.
8E\	4r	.
8C\J	.	.
=18	=18	=18
4CC/)	8r	.
.	(8gg\L	.
4r	8ff#\	.
.	8ee-\	.
(4c\	8dd\	.
.	8cc\J	.
=19	=19	=19
4d\)	8ccc\L	<
.	8aa\	(
(4d\	8ff#\	(
.	8ee-\	(
4f#\)	8dd\	(
.	8cc\J)	(
=20	=20	=20
4r	(8ddd\L	(
.	8bb-\	(
(4g'\	8gg\	(
.	8ffn\	(
4g'\)	8een\	(
.	8dd\J)	(
=21	=21	=21
4r	(8ddd\L	(
.	8bbn\	(
(4g#'\	8gg#\	(
.	8ffn\	(
4g#^\	8ee\	(
.	8dd\J	[
=22	=22	=22
4.a\	12cc#\L	f
.	12dd\	.
.	12ee\J)	.
.	(2ee\	.
8gn\L	.	.
8f#\	.	.
8e\J	.	.
=23	=23	=23
4.d\	12ff#\L	p
.	12gg\	<
.	12aa\J)	(
.	(2aa\	(
8c\L	.	(
8B\	.	(
8A\J	.	(
=24	=24	=24
4.G\	12bb\L	(
.	12ccc\	(
.	12ddd\J)	(
.	2ddd\	(
8F#\L	.	(
8E\	.	(
8D\J	.	(
=25	=25	=25
4C/	8r	[
.	8cc'\ 8ee'\L	mf
4D/)	8cc\ (8ee\	.
.	8b\ 8dd\)	.
(4DD/	8b\ (8dd\	.
.	8a\ 8cc\J	.
=26	=26	=26
4GG'/)	8b'\)	.
.	(4cc#^\	p
(4G\	.	.
.	8dd\	.
4F#\)	16ee\LL	.
.	16ccn\	.
.	16b\	.
.	16a\JJ	.
=27	=27	=27
4r	8b'\)	.
.	(4cc#^\	.
(4G\	.	.
.	8dd\	.
4F#\)	16ee\LL	.
.	16ccn\	.
.	16b\	.
.	16a\JJ)	.
=28	=28	=28
4r	(8bb\L	mf
.	8gg\	.
(4G\	8dd\	.
.	8b\	.
4BB/	8g\	.
.	8dd\J)	.
=29	=29	=29
4C/	(12cc\L	.
.	12b\	.
.	12a\J	.
4D'/	4g'/ 4b'/	.
4DD'/)	4f#'/ 4a'/)	.
=30	=30	=30
4GG'/	8b\	.
.	(4cc#^\	p
(4G\	.	.
.	8dd\	.
4F#\)	16ee\LL	.
.	16ccn\	.
.	16b\	.
.	16a\JJ	.
=31	=31	=31
4r	8b'\)	.
.	(4cc#^\	.
(4G\	.	.
.	8dd\	.
4F#\)	16ee\LL	.
.	16ccn\	.
.	16b\	.
.	16a\JJ)	.
=32	=32	=32
4r	(8bb\L	p
.	8gg\	.
(4G\	8dd\	.
.	8b\	.
4BB/	8g\	.
.	8dd\J)	.
=33	=33	=33
4C/	(12cc\L	.
.	12b\	.
.	12a\J	.
4D/	4g'/ 4b'/	.
4DD'/)	4f#/ 4a/)	.
=34	=34	=34
4GG/	(16b\LL	<
.	16g\	(
.	16cc\	(
.	16a\JJ	(
4r	16dd\LL	(
.	16b\	(
.	16ee\	(
.	16cc\JJ	[
(4BB/	8dd'\L)	f
.	[8gg\J	.
=35	=35	=35
4C/)	8gg\L]	.
.	8a\J	.
(4D/	(4.a/	.
4DD/	.	.
.	16g/LL	.
.	16a/JJ	.
=36	=36	=36
4GG/)	16b\LL	p
.	16g\	.
.	16cc\	.
.	16a\JJ	.
4r	16dd\LL	<
.	16b\	(
.	16ee\	(
.	16cc\JJ	[
(4BB/	8dd'\L)	p
.	([8gg\J	.
=37	=37	=37
4C/)	8gg\L]	.
.	8a\J)	.
(4D/	(4.a/	.
4DD/	.	.
.	16g/LL	.
.	16f#/JJ	.
=38	=38	=38
*>A1	*>A1	*>A1
4GG/)	4g/)	p
(8G\L	4r	.
8Fn\	.	.
8E\	4r	.
8D\J)	.	.
=39:|!	=39:|!	=39:|!
*>A2	*>A2	*>A2
4GG/	4g/	p
4r	4r	.
4r	4r	.
=40!|:	=40!|:	=40!|:
*>B	*>B	*>B
4GG/	8r	.
.	(8g/L	p
4r	8dd/	.
.	8b-/J)	.
4A\ (4c\	(8a/L	.
.	16g/L	.
.	16f#/JJ)	.
=41	=41	=41
4B-\ 4d\)	8r	.
.	(8g/L	.
4B-\ (4d\	8dd/	.
.	8b-/J)	.
4c\ 4e-\	(8a/L	.
.	16g/L	.
.	16f/JJ)	.
=42	=42	=42
4B-\ 4d\)	8r	.
.	8gg'\L	mf
4B-'\ (4d'\	(8gg\)	.
.	8ff#\	.
4B-'\ 4d'\)	8gg\J	.
.	(8ff#\	.
=43	=43	=43
(4AA'/ 4A'/	8gg\L	f
.	8ee\J	.
4AA'/ 4A'/	8cc#'\)	.
.	4b-\	.
4AA'/) 4A'/	.	.
.	16a/LL	.
.	16g/JJ	.
=44	=44	=44
4d\ 4f\	8r	.
.	8aa'\L	mf
4d\ (4f\	(8gg#\	.
.	(8aa\)	.
4c\ 4e\)	8gg#\	.
.	[8aa\J	.
=45	=45	=45
4BB'\ (4B'\	8aa\L]	f
.	8ff#\J	.
4BB'\ 4B'\	8dd#'\)	.
.	(4ccn\	>
4BB'\ 4B'\)	.	)
.	16b\LL	)
.	16a\JJ	]
=46	=46	=46
4E'\ (4d'\	12g#\L	p
.	12b\	.
.	12dd\J)	.
4E'\ 4d'\	(12dd\L	.
.	12b\	.
.	12dd\J)	.
4E'\ 4d'\)	8dd'\L	.
.	([8dd\J	.
=47	=47	=47
4F'\ (4d'\	12dd\L]	.
.	12b\	.
.	12dd\J	.
4F'\ 4d'\	12dd\L	.
.	12dd\	.
.	12ff\J	.
4F'\ 4d'\)	8dd\L)	.
.	[8dd^\J	.
=48	=48	=48
4G#'\ (4d'\	8dd\L]	.
.	(8bb\	.
4G#'\ 4d'\	8gg#\	.
.	8ffn\	.
4G#'\ 4d'\)	8ee\	.
.	8dd\J	.
=49	=49	=49
4A'\ (4e'\	12cc\L)	.
.	(12cc\	p
.	12ee\J	.
4A'\ 4e'\)	8cc'\)	.
.	4cc\	.
(4Gn\ 4e\	.	.
.	([8cc^\	mf
=50	=50	=50
4F#\) 4d\	8cc\L]	.
.	8aa\	.
4F#'\ (4d'\	8ff#\	.
.	8ee\	.
4F#'\ 4d'\)	8dd\	.
.	8cc\J	.
=51	=51	=51
4Fn'\ (4d'\	8b\L)	.
.	(8ffn\	p
4F'\ 4d'\	8dd\	.
.	8b\J)	.
4F\ 4d\)	(8ff\L	.
.	16ee\L	.
.	16dd\JJ	.
=52	=52	=52
4r	8cc\L)	<
.	(8gg\	(
4E'\ (4G'\	8ee\	(
.	8cc\J)	(
4E\ 4G\)	(8gg\L	(
.	16ff\L	(
.	16ee\JJ	(
=53	=53	=53
4r	8dd\L)	(
.	(8aa\	(
4BB'\ (4G'\	8ff\	(
.	8dd\J)	(
4BB\ 4G\)	(8aa\L	(
.	16gg\L	(
.	16ff\JJ	[
=54	=54	=54
(4C\	(12ee\L)	mf
.	12dd\	.
.	12ee\J)	.
4D\	(12ff\L	<
.	12ee\	(
.	12ff\J)	(
4E\	(12gg\L	(
.	12ff\	(
.	12gg\J)	(
=55	=55	=55
4F\	(12aa\L	(
.	12gg\	(
.	12aa\J)	(
4G\	(12bb\L	(
.	12aa\	(
.	12bb\J)	(
4A\	(12ccc\L	(
.	12bb\	(
.	12ccc\J	[
=56	=56	=56
4G\)	8ddd\L	f
.	8ccc\	.
(4A\	8bb\	.
.	8aa\	.
4B\	8gg\	.
.	8ff\J	.
=57	=57	=57
4c'\)	8ee'\)	.
.	(4ff#^\	.
(4c\	.	.
.	8gg\	.
4B\)	16aa\LL	.
.	16ffn\	.
.	16ee\	.
.	16dd\JJ	.
=58	=58	=58
4r	8ee'\)	.
.	(4ff#^\	.
(4c\	.	.
.	8gg\	.
4B\	16aa\LL	.
.	16ffn\	.
.	16ee\	.
.	16dd\JJ	.
=59	=59	=59
4c'\)	(8ee'\L)	.
.	8gg\	.
(4C/	8ccc\	.
.	8gg\	.
4E\	8ee\	.
.	8cc\J	.
=60	=60	=60
4F\	12dd\L	.
.	12ee\	.
.	12ff\J	.
4G'\	4cc'\ 4ee'\	.
4GG'/)	4b\ 4dd\)	.
=61	=61	=61
4c'\	8ee'\	.
.	(4ff#\	p
(4c\	.	.
.	8gg\	.
4B\)	16aa\LL	.
.	16ffn\	.
.	16ee\	.
.	16dd\JJ	.
=62	=62	=62
4r	(8ee'\)	.
.	4ff#\	.
(4c\	.	.
.	8gg\	.
4B\	16aa\LL	.
.	16ffn\	.
.	16ee\	.
.	16dd\JJ	.
=63	=63	=63
4c'\)	(8ee'\L)	.
.	8gg\	.
(4C/	8ccc\	.
.	8gg\	.
4E\	8ee\	.
.	8cc\J	.
=64	=64	=64
4F\	12dd\L	.
.	12ee\	.
.	12ff\J	.
4G'\	4cc'\ 4ee'\	.
4GG'/)	4b'\ 4dd'\)	.
=65	=65	=65
4C/	(16ee\LL	<
.	16cc\	(
.	16ff\	(
.	16dd\JJ	(
4r	16gg\LL	(
.	16ee\	(
.	16aa\	(
.	16ff\JJ	[
(4E\ 4c\	8gg'\L)	f
.	([8ccc\J	.
=66	=66	=66
4F\) 4c\	8ccc\L]	.
.	8dd\J)	.
4G\ (4c\	(4.dd\	.
4G\ 4B\	.	.
.	16cc\LL	.
.	16dd\JJ	.
=67	=67	=67
4C'\ 4c'\)	16ee\LL	.
.	16cc\	p
.	16ff\	.
.	16dd\JJ	<
4r	16gg\LL	(
.	16ee\	(
.	16aa\	(
.	16ff\JJ	(
(4E\	8gg'\L)	[
.	([8ccc\J	p
=68	=68	=68
4F\)	8ccc\L]	.
.	8dd\J)	.
(4G\	(4.dd\	.
4GG/	.	.
.	16cc\LL	.
.	16b\JJ	.
=69	=69	=69
*>B1	*>B1	*>B1
4CC/)	8cc\L	.
.	8g\J)	.
4r	(8c/L	<
.	8d/	(
4r	8e/	(
.	8f#/J)	[
=70:|!	=70:|!	=70:|!
*>B2	*>B2	*>B2
4CC/	4cc\	p
4r	4r	.
4r	4r	.
==	==	==
*-	*-	*-
!!!ENC: Craig Stuart Sapp
!!!END: 2005/06/20/
